X:1
T:A Shropshire Lad
T:George Butterworth 
T:1 - Loveliest of trees
T: Alfred Edward Housman 
T:Loveliest of trees, the cherry now Is hung with bloom along the bough, And stands about the woodland ride Wearing white for Eastertide. Now, of my threescore years and ten, Twenty will not come again, And take from seventy springs a score, It only leaves me fifty more. And since to look at things in bloom Fifty springs are little room, About the woodlands I will go To see the cherry hung with snow.
%%score 1 { ( 2 4 ) | ( 3 5 ) }
L:1/8
Q:1/4=75
M:4/4
K:D
V:1 treble nm="Voice"
V:2 treble nm="Pianoforte"
V:4 treble 
V:3 bass 
V:5 bass 
V:1
"^Molto moderato, sempre rubato e con espressione" z8 | z8 | z8 |!p!!<(! (d4 c2)!<)! BG | A6 G2 | %5
w: |||Love- * liest of|trees, the|
 FD E4 D2 | B,2 B2 B2 A2 |[Q:1/4=65]"^T""^dim." F3 E F4- | %8
w: cher- ry now Is|hung with bloom a-|long the bough,|
 F z!p![Q:1/4=80]"_a tempo"[Q:1/4=75]"^a tempo" D2!<(! E2 F2!<)! | A2 F2 C2 D2 |!>(! B,8-!>)! | %11
w: * and stands a-|bout the wood- land|ride|
 B,2 z2 z4 | B2"^cresc." ^G2 d4- | d6 A2 | F6 E2 |!f! D8- | D2 z2 z4 | z8 | z8 | z8 | z8 | %21
w: _|wear- ing white|_ for|Eas- ter-|tide.|_|||||
 z2 F4 DE |[M:2/4] F2 D2 |[M:4/4] C3 B, B,2 z2 | F3 F DE F2 | E D2 C B,2 z B, | %26
w: Now of my|three- score|years and ten,|Twen- ty will _ not|come _ a- gain, And|
 F3 D E2"^cresc." F2 | A3 A G2 z F | c3 c B2 A2 |[Q:1/4=65]"^T""^dim." B,!>(!CDE F4-!>)! | F4 z4 | %31
w: take from seven- ty|springs a score, It|on- ly leaves me|fif- * ty _ more.|_|
 z2!p![Q:1/4=75]"^a tempo" D2 E2 F2[Q:1/4=80]"_a tempo" | A3 F C2 D2 | B,6 z2 | %34
w: And since to|look at things in|bloom|
 B3 ^G"^cresc." ^D2 E2 | C2 c2 B4- | B z A2 =G2 E2 |!f! d6 c2 | BG"^dim." A4 G2 | FD E4 D2 | %40
w: Fif- ty springs are|lit- tle room,|_ A- bout the|wood- lands|I will go To|see the cher- ry|
!<(! B,2!<)! B2 B4- | B4- B z z2 | z8 | z8 | z8 | z8 | z8 | z8 |] %48
w: hung with snow.|_ _|||||||
V:2
 z2 (c4 c2 | BG A3 G FD |!ped! EDB,G,[I:staff +1] D,B,, E,,2-) |[I:staff -1] z8!ped-up! | %4
 z!p! (GFD EDB,G,) | z8!ped!!ped-up! | ([A,A]4 G) z z2 | [B,D]4 [A,DF]4- | a z z2 z4 | z8 | %10
 z2!p! (d4 c2 | BG A3 G FD) | (ED"_cresc."B,A, !courtesy!^G,B,D^G) | %13
 !tenuto!A2 !tenuto!F2 !tenuto![Dd-]4 | ([Dd]4 [Cc]4) | %15
 !tenuto![DFAd]2 !tenuto![DFA]2 !tenuto![Adf]4- | %16
 (3[Adf]2 !tenuto![FAd]2"_cresc." !tenuto![Adf]2 (3!tenuto![dfa]2 !tenuto![Adf]2 !tenuto![dfa]2 | %17
 [dgb]2!ped!!ff! ([dbd']4 [cac']2 | [Bgb]6 [Geg]2)!ped-up! | z2!f! ((!>![Fdf]4 [DFd])) z | %20
 z2 ((!>![DF]4 [B,D])) z | z8 |[M:2/4] z4 |[M:4/4] z2 ((!>![F,F]4 [B,D])) z | z8 | z8 | %26
 z2 (!>!F2 E2"_cresc." D) z | z2 (!>!F2 E2 D) z | z2 (([CF]2 [B,E]2"_dim." [A,D])) z | %29
"_dim." z2 !tenuto!B,2 z2 .F,2 | z2 F6- | (F2 D) z z4 | z8 | !>![Bd]4 [Ac]4 | [^GB]2 z2 z4 | %35
 ([ce]4 [Bd]4- | [Bd]2 [Ac][FA] [GB]2 [EA]) z | z8!mf! | d z z2 z dgb | d' z z2 z!8va(! d'^g'b' | %40
 d''!8va)! z z2 z"_cresc." F,B,D | F z z2 z F (3Bdf | z2 [fa]4 [eg]2 | [df][Bd] [=ce]4 [Bd]2 | %44
"_dim." ([A=c][=FA] [GB]4 [FA]) z | z2!p! ([GB]4 [EG]) z | z2!pp! ([^FA]4 !arpeggio![Fda]2) | %47
 !arpeggio![Fda]8 |] %48
V:3
 z8 | z8 | z8 | E,,2 z2 z4 | z8 | (A,,B,,D,F,!<(![I:staff -1] B,DFG)!<)! | %6
[I:staff +1] [G,,D,]4- [G,,D,] z z2 | z8 | z8 | z4 z!pp! (F,,A,,D,) | [G,,B,,D,E,]8- | %11
 [G,,B,,D,E,]6 z2 | [E,,B,,]8 | D,6 D,F, | ((!^![G,,B,]4 [A,,A,]4)) |!f! [D,A,]6 !tenuto![D,D]2 | %16
 !tenuto![C,C]6 !tenuto![B,,B,]!tenuto![A,,A,] | [G,,G,]3 !tenuto!G, !tenuto!A,3 !tenuto!B, | %18
 !tenuto!C3 !tenuto!D!>(! [G,B,CE]4!>)! | z2 !>!B,,3 F, B, z | z8 | z8 |[M:2/4] z4 |[M:4/4] z8 | %24
 z8 | z2!pp! ((!>![F,,F,]4 [G,,D,])) z | z2 (!>!D,2 E,2 F,) z | z2 (!>!D,2 E,2 F,) z | %28
 z2 (=B,,2 C,2 D,) z | z2 !tenuto![G,,D,]2 z2 .[D,,A,,]2 | [E,,B,,]8- | [E,,B,,]2- [E,,B,,] z z4 | %32
 z!pp! (F,,C,A,) z (F,,D,A,) | z (G,,D,B,) z (G,,^D,B,) | z (^G,,^D,B,)"^cresc." z (G,,E,B,) | %35
 z (A,,E,C) z (A,,^E,C) | z (A,,F,C) z (A,,G,C) | z (B,,D,G, B,[I:staff -1] DGB | %38
[I:staff +1][K:treble] z) B,"^dim."DG B z z2 | z Bd^g b z z2 |[K:bass] z!pp! E,,B,,D, ^G, z z2 | %41
 z E,B,D ^G z z2 | z A,,,D,,!f!F,, (3A,,D,F, (3A,DF | z8 | z2 (3z (=F,A, D) z z2 | %45
 z4 !arpeggio![E,G,=C] z !arpeggio![G,B,D] z | z4 !arpeggio![D,,A,,F,]4 | !arpeggio![D,,A,,F,]8 |] %48
V:4
 x8 | x8 | x8 | x8 | x8 | x8 | [B,D]8- | z (B"_dim."AG F)!pp! d'c'b | [A,DF] x7 | x8 | x8 | x8 | %12
 ^G,4 G,4 | A,2- (3A,B,C DEFA | (A6 G2) | x8 | x8 | x8 | x8 | x8 | x8 | x8 |[M:2/4] x4 | %23
[M:4/4] x8 | x8 | x8 | x2 (B,4 A,) x | x8 | x8 | x8 | ^G,8- | G,2- G, z z4 | x8 | x8 | x8 | x8 | %36
 x8 | x8 | x8 | x5!8va(! x3 | x!8va)! x7 | x8 | x8 | A z z/ (A,/D/=F/ A) z z2 | x8 | x8 | x8 | %47
 x8 |] %48
V:5
 x8 | x8 | x8 | x8 | x8 | x8 | x8 | x8 | x8 | x8 | x8 | x8 | x8 | F,,8 | x8 | x8 | x8 | x8 | x8 | %19
 x8 | x8 | x8 |[M:2/4] x4 |[M:4/4] x8 | x8 | x8 | x2 (^G,,4 A,,) x | x2 (_B,,4 A,,) x | %28
 x2 (G,,4 F,,) x | x8 | x8 | x8 | x8 | x8 | x8 | x8 | x8 | x5 z z2 |[K:treble] x8 | x8 | %40
[K:bass] x8 | x8 | x8 | x8 | x8 | x8 | x8 | x8 |] %48

